!!!OTL: Ach Schatz, wo fehlt es dir (Band 1), S. 215
!!!id: P0850
**kern
*clefG2
*k[f#]
*G:
{16g
=1
16g
4g
8f#
8g
=2
8a
8f#
4d}
=3
{4b
8a
8b
=4
8cc
8b
8a}
=5
{8g
=6
8a
8a
8a
16d
16d
=7
8g
8b
8b
8g}
=8
{8a
8a
8a
16f#
16d
=9
8g
16b
16b
8b
8g}
=10
{8.cc
8ee
8dd
16g
=11
8b
8a
4g}
==
*-
!!!minrhy: 16
!!!meters: 2/4 ]  ZZ[5
!!!cut: Ach Schatz, wo fehlt es dir (Band 1), S. 215
!!!reg: Lothringen
!!!trd: PINCK, Louis: Verklingende Weisen, Bd 1, Metz 1928
!!!rhy1:   X__X_X_  X_X_X__   (x2)
!!!rhy2: X__X_X_  X_X_X_
!!!key: P0850  16  G 2/4 ]  ZZ[5
!!!mod: HEPTATONIK IONISCH]  AMBITUS[9
!!!kad: -52111
!!!akz: 12_34_21_21_43_
!!!fot: 'a__as"b__bv_c__
!!!for: 'a__av_b__c__d__
!!!fok: '\__\__S__Sd_^d_
!! PHRAS[VORWIEGEND VOLLTAKTIG]
!!!fkt: ???, Liebe, Abschied?
!! LOTH VKL
!! PR[14] 2K[17] 2G[17] 3K[0] 3G[0] 4A[3] 4Ü[0] 5A[3] 6K[0] 6G[0]
!! 7K[0] 7G[0] 8A[0] MEHR[0] SI[41] ABS[29] SR[34] SP[7]
!! ST[0] 2k[10] 2g[21] 3k[14] 3g[0] 4d[0] 4ü[0] 5d[0] 6k[0] 6g[0]
!! 7k[0] 7g[0] 8d[0] mehr[0] si[45] dm[-4] sr[31] sp[14]
!! 1F[3] 2F[73] 3F[20] 4F[0] LF[0] 2P[3] 3P[0] 4P[0] TRI[0] DF[4] AB[30]
!! TF[0] U3K[0] U3[0] U4[0] U4Ü[0] U5[0] U6K[0] U6[13] U7K[0] U7[30]
!! N1[30] N2K[0] N2[20] N3K[0] N3[7] N4[0] N4Ü[0] N5[0] N6K[0] N6[0]
!!!n7k: 0] N7[0] O1[0] O2K[0] O2[0] O3K[0] O3[0] HÖ[0
